X:1
T:O Ovo
C:Hermeto
M:2/4
K:C
c_BAG   | ECEG    FEDC | ECEG    c_BAG | ECEG     FEDC | C4 :|
s: mf | &quot;C7&quot;*** &quot;Bb&quot; | &quot;C7&quot;*** &quot;Gm7&quot; | &quot;C7&quot;**** &quot;Bb&quot; | &quot;C&quot;
